X:180
T:Will Ye Go Lassie Go
T:Wild Mountain Thyme
R:song
D:The Corries
D:The High Kings
Z:id:hn-song-180
M:4/4
L:1/8
Q:1/4=60
K:G
G/E/ | D>D EG G3 B/d/ | e>e ed B<d- d
B/d/ | e2 dB AG2 A/B/ | c>B AG E<G- G
G/E/ | D2 E<G G3 ||
B/d/ | e2 e>d B<d- d B/d/ | e2 dB A<G- G
A/B/ | c>B AG E<G- G
G/E/ | D2 E<G G3 ||
W:Oh, the summer time has come, and the trees are sweetly bloomin',
W:And the wild mountain thyme, grows around the bloomin' heather,
W:Will ye go, lassie, go?
W:
W:Chorus:
W:And we'll all go together, to pull wild mountain thyme,
W:All around the bloomin' heather,
W:Will ye go, lassie, go?
W:
W:I will build my love a bower, by yon cool crystal fountain,
W:And round it I will pile, all the wild flowers o' the mountain,
W:Will ye go, lassie, go?
W:
W:Chorus
W:
W:I will range through the wilds, and the deep glen sae dreamy,
W:And return wi' their spoils, tae the bower o' my dearie,
W:Will ye go, lassie, go?
W:
W:Chorus
W:
W:If my true love she'll not come, then I'll surely find another,
W:To pull wild mountain thyme, all around the bloomin' heather,
W:Will ye go, lassie, go?
W:
W:Chorus

